; generated by PrusaSlicer 2.5.0+linux-x64-GTK3 on 2022-10-05 at 00:46:13 UTC


;
;

;
;
; 

; external perimeters extrusion width = 0.45mm
; perimeters extrusion width = 0.45mm
; infill extrusion width = 0.45mm
; solid infill extrusion width = 0.45mm
; top infill extrusion width = 0.40mm
; first layer extrusion width = 0.42mm

M73 P0 R121
M201 X2500 Y2500 Z400 E5000 ; sets maximum accelerations, mm/sec^2
M203 X180 Y180 Z12 E80 ; sets maximum feedrates, mm / sec
M204 P1250 R1250 T2500 ; sets acceleration (P, T) and retract acceleration (R), mm/sec^2
M205 X8.00 Y8.00 Z2.00 E10.00 ; sets the jerk limits, mm/sec
M205 S0 T0 ; sets the minimum extruding and travel feed rate, mm/sec
M107
;TYPE:Custom
M862.3 P "MINI" ; printer model check
G90 ; use absolute coordinates
M83 ; extruder relative mode
M104 S170 ; set extruder temp for bed leveling
M140 S60 ; set bed temp
M109 R170 ; wait for bed leveling temp
M190 S60 ; wait for bed temp
M204 T1250 ; set travel acceleration
G28 ; home all without mesh bed level
G29 ; mesh bed leveling 
M204 T2500 ; restore travel acceleration
M104 S215 ; set extruder temp
G92 E0
G1 Y-2 X179 F2400
G1 Z3 F720
M109 S215 ; wait for extruder temp

; intro line
G1 X170 F1000
G1 Z0.2 F720
G1 X110 E8 F900
G1 X40 E10 F700
G92 E0

M221 S95 ; set flow
G21 ; set units to millimeters
G90 ; use absolute coordinates
M83 ; use relative distances for extrusion
M900 K0.2 ; Filament gcode LA 1.5
; ; Filament gcode LA 1.0
M107
;LAYER_CHANGE
;Z:0.2
;HEIGHT:0.2
;BEFORE_LAYER_CHANGE
G92 E0.0
;0.2


G1 E-3.2 F4200
G1 Z.2 F720
;AFTER_LAYER_CHANGE
;0.2
G1 Z.4
G1 X45.415 Y31.393 F9000
G1 Z.2 F720
G1 E3.2 F2400
M204 P800
;TYPE:Skirt/Brim
;WIDTH:0.42
G1 F1200
G1 X46.46 Y30.517 E.04278
G1 X47.4 Y30.323 E.03008
G1 X132.6 Y30.323 E2.67139
G1 X133.907 Y30.715 E.04278
G1 X134.783 Y31.76 E.04278
G1 X134.977 Y32.7 E.03008
G1 X134.977 Y147.3 E3.5932
G1 X134.585 Y148.607 E.04278
G1 X133.54 Y149.483 E.04278
G1 X132.6 Y149.677 E.03008
G1 X47.4 Y149.677 E2.67139
G1 X46.093 Y149.285 E.04278
G1 X45.217 Y148.24 E.04278
G1 X45.023 Y147.3 E.03008
G1 X45.023 Y32.7 E3.5932
G1 X45.397 Y31.45 E.0409
M204 P1000
; printing object spacedos_desk.stl id:0 copy 0
G1 E-2.24 F4200
;WIPE_START
G1 F7200
G1 X46.46 Y30.517 E-.78411
G1 X46.686 Y30.47 E-.12789
;WIPE_END
G1 E-.048 F4200
G1 Z.4 F720
G1 X64.431 Y53.839 F9000
G1 Z.2 F720
G1 E3.2 F2400
M204 P800
;TYPE:Perimeter
;WIDTH:0.419999
G1 F1200
G1 X64.572 Y53.864 E.00452
G1 X104.021 Y53.864 E1.23689
G1 X104.374 Y53.796 E.01126
G1 X104.691 Y53.585 E.01194
G1 X104.895 Y53.276 E.01161
G1 X104.964 Y52.921 E.01132
G1 X104.964 Y33.864 E.59753
G1 X131.436 Y33.864 E.83
G1 X131.436 Y146.136 E3.52019
G1 X48.564 Y146.136 E2.59838
M73 P0 R120
G1 X48.564 Y33.864 E3.52019
G1 X63.636 Y33.864 E.47256
G1 X63.64 Y53.008 E.60023
G1 X63.722 Y53.315 E.00998
G1 X63.935 Y53.611 E.01143
G1 X64.255 Y53.807 E.01178
G1 X64.372 Y53.828 E.0037
M204 P1000
G1 X64.489 Y53.465 F9000
M204 P800
G1 F1200
G1 X64.573 Y53.487 E.00271
G1 X104.084 Y53.484 E1.23885
G1 X104.331 Y53.395 E.00823
G1 X104.521 Y53.188 E.00881
G1 X104.587 Y52.926 E.00845
G1 X104.587 Y33.487 E.60951
G1 X131.813 Y33.487 E.85365
G1 X131.813 Y146.513 E3.54384
G1 X48.187 Y146.513 E2.62203
G1 X48.187 Y33.487 E3.54384
M73 P1 R120
G1 X64.013 Y33.487 E.49621
G1 X64.015 Y52.973 E.61097
G1 X64.11 Y53.239 E.00885
G1 X64.307 Y53.417 E.00832
G1 X64.431 Y53.45 E.00403
M204 P1000
G1 X64.576 Y53.11 F9000
M204 P800
;TYPE:External perimeter
G1 F1200
G1 X104.021 Y53.11 E1.23677
G1 X104.141 Y53.067 E.00397
G1 X104.21 Y52.923 E.00502
G1 X104.21 Y33.11 E.62123
G1 X132.19 Y33.11 E.87729
G1 X132.19 Y146.89 E3.56749
G1 X47.81 Y146.89 E2.64567
G1 X47.81 Y33.11 E3.56749
G1 X64.39 Y33.11 E.51985
G1 X64.39 Y52.921 E.62117
G1 X64.434 Y53.042 E.00402
G1 X64.522 Y53.084 E.00308
M204 P1000
G1 X64.679 Y53.497 F9000
G1 E-2.24 F4200
;WIPE_START
G1 F7200
G1 X66.168 Y53.085 E-.912
;WIPE_END
G1 E-.048 F4200
G1 Z.4 F720
G1 X58.375 Y61.449 F9000
G1 Z.2 F720
G1 E3.2 F2400
M204 P800
;TYPE:Perimeter
G1 F1200
G1 X58.708 Y61.465 E.01045
G1 X59.671 Y61.951 E.03381
G1 X61.988 Y63.281 E.08378
G1 X62.236 Y63.488 E.01012
G1 X62.406 Y63.786 E.01075
G1 X62.459 Y64.097 E.0099
G1 X62.459 Y67.603 E.10992
G1 X62.393 Y67.948 E.01102
G1 X62.193 Y68.259 E.01158
G1 X61.987 Y68.419 E.00819
G1 X58.951 Y70.172 E.10992
G1 X58.625 Y70.287 E.01084
G1 X58.272 Y70.275 E.01109
G1 X58.009 Y70.172 E.00886
G1 X54.973 Y68.419 E.10992
G1 X54.744 Y68.234 E.00923
G1 X54.568 Y67.951 E.01047
G1 X54.501 Y67.599 E.01121
G1 X54.511 Y65.149 E.07683
G1 X54.563 Y64.589 E.01762
G1 X54.648 Y64.199 E.01253
G1 X54.043 Y63.847 E.02195
G1 X53.818 Y63.645 E.00949
G1 X53.487 Y63.181 E.01785
G1 X53.273 Y62.692 E.01675
G1 X53.156 Y62.145 E.01754
G1 X53.155 Y61.646 E.01562
G1 X53.302 Y60.988 E.02115
G1 X53.549 Y60.49 E.01744
G1 X53.877 Y60.068 E.01675
G1 X54.298 Y59.704 E.01745
G1 X54.899 Y59.398 E.02115
G1 X55.379 Y59.275 E.01553
G1 X55.86 Y59.245 E.01512
G1 X56.429 Y59.327 E.01803
G1 X56.932 Y59.508 E.01674
G1 X57.19 Y59.65 E.00925
G1 X57.612 Y59.977 E.01674
G1 X57.976 Y60.399 E.01749
G1 X58.218 Y60.848 E.01597
G1 X58.368 Y61.39 E.01764
M204 P1000
G1 X57.991 Y62.046 F9000
M204 P800
G1 F1200
G1 X58.34 Y61.831 E.01285
G1 X58.616 Y61.831 E.00865
G1 X59.492 Y62.283 E.0309
G1 X61.799 Y63.608 E.08341
G1 X62.006 Y63.814 E.00914
G1 X62.082 Y64.096 E.00918
G1 X62.082 Y67.603 E.10994
G1 X62.018 Y67.864 E.00841
G1 X61.828 Y68.074 E.00889
G1 X58.763 Y69.846 E.111
G1 X58.491 Y69.921 E.00883
G1 X58.251 Y69.873 E.00768
G1 X58.197 Y69.846 E.0019
G1 X55.161 Y68.093 E.10992
G1 X54.965 Y67.903 E.00855
G1 X54.887 Y67.701 E.00681
G1 X54.878 Y67.601 E.00314
G1 X54.888 Y65.15 E.07683
G1 X54.939 Y64.628 E.01646
G1 X55.069 Y64.063 E.01818
G1 X55.121 Y63.944 E.00407
G1 X54.692 Y63.816 E.01406
G1 X54.246 Y63.53 E.01659
G1 X53.91 Y63.159 E.01571
G1 X53.619 Y62.541 E.02142
G1 X53.528 Y62.086 E.01455
G1 X53.545 Y61.553 E.01672
G1 X53.648 Y61.138 E.0134
G1 X53.847 Y60.721 E.01448
G1 X54.175 Y60.299 E.01675
G1 X54.619 Y59.945 E.01781
G1 X55.004 Y59.76 E.0134
G1 X55.415 Y59.651 E.01335
G1 X55.827 Y59.62 E.01293
G1 X56.301 Y59.681 E.01501
G1 X56.804 Y59.862 E.01674
G1 X57.381 Y60.275 E.02224
G1 X57.738 Y60.726 E.01804
G1 X57.922 Y61.131 E.01395
G1 X58.013 Y61.576 E.01425
G1 X57.994 Y61.986 E.01286
M204 P1000
G1 X57.097 Y63.136 F9000
M204 P800
;TYPE:External perimeter
;WIDTH:0.45272
G1 F1200
G1 X57.372 Y62.997 E.01049
;WIDTH:0.419999
G1 X58.361 Y62.233 E.0392
G1 X58.525 Y62.197 E.00526
G1 X59.314 Y62.615 E.02799
G1 X61.61 Y63.934 E.08305
G1 X61.699 Y64.05 E.00457
G1 X61.705 Y64.677 E.01965
G1 X61.705 Y67.603 E.09175
G1 X61.636 Y67.748 E.00504
G1 X58.574 Y69.519 E.1109
G1 X58.421 Y69.535 E.00482
G1 X55.35 Y67.766 E.11114
G1 X55.258 Y67.635 E.005
M73 P1 R119
G1 X55.255 Y67.602 E.00105
G1 X55.265 Y65.152 E.07683
G1 X55.318 Y64.642 E.01607
G1 X55.435 Y64.15 E.01585
G1 X55.534 Y64.025 E.005
G1 X56.015 Y63.781 E.01689
;WIDTH:0.454143
G1 X56.251 Y63.625 E.00967
;WIDTH:0.488286
G1 X56.486 Y63.469 E.01047
G1 X56.209 Y63.523 E.01047
;WIDTH:0.454143
G1 X55.931 Y63.576 E.00967
;WIDTH:0.419999
G1 X55.428 Y63.591 E.01579
G1 X54.958 Y63.524 E.01487
G1 X54.45 Y63.213 E.01869
G1 X54.178 Y62.879 E.01348
G1 X53.964 Y62.39 E.01675
G1 X53.9 Y62.027 E.01156
G1 X53.913 Y61.635 E.01229
G1 X53.994 Y61.288 E.01118
G1 X54.145 Y60.953 E.01153
G1 X54.473 Y60.53 E.01675
G1 X54.79 Y60.281 E.01265
G1 X55.109 Y60.122 E.01118
G1 X55.452 Y60.026 E.01116
G1 X55.793 Y59.996 E.01074
G1 X56.174 Y60.036 E.012
G1 X56.676 Y60.217 E.01674
G1 X57.15 Y60.573 E.01857
G1 X57.4 Y60.893 E.01273
G1 X57.556 Y61.22 E.01136
G1 X57.636 Y61.576 E.01144
G1 X57.628 Y61.946 E.01161
G1 X57.522 Y62.291 E.01132
G1 X57.224 Y62.793 E.0183
;WIDTH:0.45272
G1 X57.023 Y63.034 E.0107
;WIDTH:0.485441
G1 X56.822 Y63.276 E.01155
G1 X57.044 Y63.164 E.00912
M204 P1000
G1 X57.252 Y62.87 F9000
G1 X56.486 Y63.469
M204 P800
;WIDTH:0.488286
G1 F1200
G1 X56.818 Y63.279 E.01415
M204 P1000
G1 E-2.24 F4200
;WIPE_START
G1 F7200
G1 X56.486 Y63.469 E-.21177
;WIPE_END
G1 E-.74823 F4200
G1 Z.4 F720
G1 X70.055 Y64.634 F9000
G1 Z.2 F720
G1 E3.2 F2400
M204 P800
;TYPE:Perimeter
;WIDTH:0.419999
G1 F1200
G1 X69.746 Y64.409 E.01197
G1 X69.22 Y63.779 E.02573
G1 X69.078 Y63.521 E.00924
G1 X68.88 Y62.97 E.01836
G1 X68.795 Y62.389 E.01842
G1 X68.828 Y61.861 E.01659
G1 X68.96 Y61.348 E.01659
G1 X69.185 Y60.869 E.01659
G1 X69.496 Y60.441 E.01659
G1 X69.881 Y60.079 E.01659
G1 X70.328 Y59.795 E.01659
G1 X70.82 Y59.6 E.01658
G1 X71.47 Y59.494 E.02065
G1 X72.04 Y59.523 E.01789
G1 X72.557 Y59.655 E.01674
G1 X73.036 Y59.88 E.01659
G1 X73.464 Y60.191 E.01659
G1 X73.99 Y60.821 E.02573
G1 X74.132 Y61.079 E.00924
G1 X74.33 Y61.63 E.01836
G1 X74.415 Y62.211 E.01842
G1 X74.382 Y62.739 E.01659
G1 X74.25 Y63.252 E.01659
G1 X74.025 Y63.731 E.01659
G1 X73.505 Y64.366 E.02573
G1 X73.278 Y64.553 E.00924
G1 X72.774 Y64.852 E.01836
G1 X72.219 Y65.044 E.01842
G1 X71.694 Y65.11 E.01659
G1 X71.166 Y65.077 E.01659
G1 X70.653 Y64.945 E.01659
G1 X70.174 Y64.72 E.01659
G1 X70.103 Y64.669 E.00274
M204 P1000
G1 X70.306 Y64.354 F9000
M204 P800
G1 F1200
G1 X69.877 Y64.011 E.01723
G1 X69.518 Y63.548 E.01836
G1 X69.236 Y62.848 E.02366
G1 X69.17 Y62.353 E.01565
G1 X69.211 Y61.841 E.01611
G1 X69.36 Y61.356 E.0159
G1 X69.578 Y60.95 E.01444
G1 X69.867 Y60.594 E.01437
G1 X70.217 Y60.299 E.01437
G1 X70.616 Y60.074 E.01437
G1 X71.067 Y59.926 E.01486
G1 X71.591 Y59.863 E.01655
G1 X72.113 Y59.918 E.01648
G1 X72.551 Y60.056 E.01437
G1 X72.955 Y60.273 E.01437
G1 X73.333 Y60.589 E.01547
G1 X73.692 Y61.052 E.01836
G1 X73.976 Y61.758 E.02385
G1 X74.042 Y62.303 E.01721
G1 X73.987 Y62.809 E.01596
G1 X73.849 Y63.246 E.01437
G1 X73.61 Y63.677 E.01547
G1 X73.222 Y64.116 E.01836
G1 X72.582 Y64.527 E.02385
G1 X72.089 Y64.688 E.01628
G1 X71.586 Y64.737 E.01584
G1 X71.096 Y64.682 E.01544
G1 X70.659 Y64.544 E.01437
G1 X70.359 Y64.383 E.0107
M204 P1000
G1 X70.575 Y64.075 F9000
M204 P800
;TYPE:External perimeter
G1 F1200
G1 X70.487 Y64.029 E.00312
G1 X70.175 Y63.78 E.01252
G1 X69.816 Y63.317 E.01836
G1 X69.591 Y62.72 E.02
G1 X69.546 Y62.318 E.0127
G1 X69.585 Y61.897 E.01326
G1 X69.714 Y61.491 E.01335
G1 X69.876 Y61.182 E.01094
G1 X70.116 Y60.877 E.01215
G1 X70.409 Y60.624 E.01215
G1 X70.744 Y60.429 E.01215
G1 X71.115 Y60.3 E.01231
G1 X71.608 Y60.241 E.01555
G1 X72.008 Y60.28 E.01262
G1 X72.38 Y60.392 E.01215
G1 X72.723 Y60.571 E.01215
G1 X73.035 Y60.82 E.01252
G1 X73.394 Y61.283 E.01836
G1 X73.621 Y61.885 E.02019
G1 X73.664 Y62.318 E.01362
G1 X73.625 Y62.703 E.01215
G1 X73.513 Y63.075 E.01215
G1 X73.327 Y63.428 E.01252
G1 X72.939 Y63.867 E.01836
G1 X72.39 Y64.202 E.02019
G1 X71.887 Y64.334 E.0163
G1 X71.587 Y64.359 E.00943
G1 X71.202 Y64.32 E.01215
G1 X70.83 Y64.208 E.01215
G1 X70.628 Y64.103 E.00715
M204 P1000
G1 X70.493 Y64.132 F9000
G1 E-2.24 F4200
;WIPE_START
G1 F7200
G1 X70.487 Y64.029 E-.08846
G1 X70.175 Y63.78 E-.22125
G1 X69.816 Y63.317 E-.3245
G1 X69.639 Y62.848 E-.27779
;WIPE_END
G1 E-.048 F4200
G1 Z.4 F720
G1 X95.512 Y63.369 F9000
G1 Z.2 F720
G1 E3.2 F2400
M204 P800
;TYPE:Perimeter
G1 F1200
G1 X95.613 Y63.281 E.0042
G1 X98.649 Y61.528 E.10992
G1 X98.957 Y61.416 E.01029
G1 X99.287 Y61.417 E.01035
G1 X99.591 Y61.528 E.01016
G1 X102.627 Y63.281 E.10992
G1 X102.912 Y63.533 E.01192
G1 X103.043 Y63.778 E.0087
G1 X103.099 Y64.097 E.01017
G1 X103.099 Y67.603 E.10992
G1 X103.033 Y67.949 E.01105
G1 X102.851 Y68.24 E.01077
G1 X102.627 Y68.419 E.00897
G1 X99.591 Y70.172 E.10992
G1 X99.234 Y70.292 E.01181
G1 X98.862 Y70.263 E.01169
G1 X98.365 Y70.008 E.01753
G1 X95.613 Y68.419 E.09963
G1 X95.35 Y68.194 E.01086
G1 X95.182 Y67.876 E.01128
G1 X95.141 Y67.603 E.00865
G1 X95.141 Y64.097 E.10992
G1 X95.195 Y63.783 E.00999
G1 X95.341 Y63.517 E.00953
G1 X95.466 Y63.408 E.00519
M204 P1000
G1 X95.706 Y63.69 F9000
M204 P800
G1 F1200
G1 X95.801 Y63.607 E.00397
G1 X98.837 Y61.854 E.10992
G1 X99.12 Y61.779 E.00918
G1 X99.403 Y61.854 E.00918
G1 X102.439 Y63.607 E.10992
G1 X102.648 Y63.817 E.00928
G1 X102.722 Y64.097 E.00908
G1 X102.722 Y67.603 E.10992
G1 X102.656 Y67.867 E.00852
G1 X102.481 Y68.066 E.00831
G1 X99.403 Y69.846 E.1115
G1 X99.13 Y69.921 E.00889
G1 X98.85 Y69.853 E.00901
G1 X95.801 Y68.093 E.11039
G1 X95.597 Y67.89 E.00903
G1 X95.519 Y67.623 E.00872
G1 X95.518 Y64.097 E.11055
G1 X95.572 Y63.856 E.00775
G1 X95.668 Y63.737 E.00478
M204 P1000
G1 X95.99 Y63.934 F9000
M204 P800
;TYPE:External perimeter
G1 F1200
G1 X99.026 Y62.181 E.10992
G1 X99.185 Y62.167 E.00502
G1 X102.25 Y63.934 E.11092
G1 X102.342 Y64.065 E.00501
G1 X102.345 Y67.603 E.11093
G1 X102.277 Y67.747 E.00499
G1 X99.214 Y69.519 E.11096
G1 X99.057 Y69.533 E.00496
G1 X95.99 Y67.766 E.11099
G1 X95.898 Y67.634 E.00503
G1 X95.895 Y64.097 E.11091
G1 X95.947 Y63.974 E.00419
M204 P1000
G1 X95.856 Y63.557 F9000
G1 E-2.24 F4200
;WIPE_START
G1 F7200
G1 X97.369 Y63.146 E-.912
;WIPE_END
G1 E-.048 F4200
G1 Z.4 F720
G1 X110.551 Y62.358 F9000
G1 Z.2 F720
G1 E3.2 F2400
M204 P800
;TYPE:Perimeter
G1 F1200
G1 X110.527 Y62.739 E.01197
G1 X110.277 Y63.521 E.02573
G1 X110.135 Y63.779 E.00924
G1 X109.776 Y64.242 E.01836
G1 X109.331 Y64.625 E.01842
G1 X108.867 Y64.88 E.01659
G1 X108.364 Y65.044 E.01659
G1 X107.839 Y65.11 E.01659
G1 X107.311 Y65.077 E.01659
G1 X106.798 Y64.945 E.01659
G1 X106.319 Y64.72 E.01659
G1 X105.891 Y64.409 E.01659
G1 X105.365 Y63.779 E.02573
G1 X105.173 Y63.383 E.01381
G1 X104.991 Y62.854 E.01753
G1 X104.94 Y62.389 E.01468
G1 X104.973 Y61.861 E.01659
G1 X105.105 Y61.348 E.01659
G1 X105.33 Y60.869 E.01659
G1 X105.641 Y60.441 E.01659
G1 X106.026 Y60.079 E.01659
G1 X106.473 Y59.795 E.01659
G1 X106.965 Y59.6 E.01658
G1 X107.615 Y59.494 E.02065
G1 X108.185 Y59.523 E.01789
G1 X108.702 Y59.655 E.01674
G1 X109.181 Y59.88 E.01659
G1 X109.816 Y60.4 E.02573
G1 X110.003 Y60.627 E.00924
G1 X110.305 Y61.137 E.01856
G1 X110.494 Y61.686 E.01823
G1 X110.56 Y62.211 E.01659
G1 X110.555 Y62.299 E.00274
M204 P1000
G1 X110.181 Y62.292 F9000
M204 P800
G1 F1200
G1 X110.121 Y62.842 E.01737
G1 X109.922 Y63.393 E.01836
G1 X109.478 Y64.011 E.02385
G1 X109.079 Y64.343 E.01628
G1 X108.633 Y64.572 E.01571
G1 X108.154 Y64.702 E.01556
G1 X107.697 Y64.735 E.01437
G1 X107.241 Y64.682 E.01437
G1 X106.804 Y64.544 E.01437
G1 X106.4 Y64.327 E.01437
G1 X106.022 Y64.011 E.01547
G1 X105.663 Y63.548 E.01836
G1 X105.409 Y62.926 E.02108
G1 X105.348 Y62.704 E.00721
G1 X105.315 Y62.353 E.01105
G1 X105.368 Y61.791 E.01769
G1 X105.506 Y61.354 E.01437
G1 X105.747 Y60.919 E.01561
G1 X106.012 Y60.594 E.01312
G1 X106.362 Y60.299 E.01437
G1 X106.761 Y60.074 E.01437
G1 X107.212 Y59.926 E.01486
G1 X107.728 Y59.863 E.0163
G1 X108.258 Y59.918 E.01673
G1 X108.696 Y60.056 E.01437
G1 X109.129 Y60.297 E.01553
G1 X109.566 Y60.683 E.01829
G1 X109.977 Y61.323 E.02385
G1 X110.14 Y61.826 E.01657
G1 X110.176 Y62.232 E.01279
M204 P1000
G1 X109.807 Y62.339 F9000
M204 P800
;TYPE:External perimeter
G1 F1200
G1 X109.766 Y62.715 E.01185
G1 X109.567 Y63.266 E.01836
G1 X109.18 Y63.78 E.02019
G1 X108.838 Y64.048 E.01362
G1 X108.492 Y64.221 E.01215
G1 X108.118 Y64.326 E.01215
G1 X107.732 Y64.359 E.01215
G1 X107.347 Y64.32 E.01215
G1 X106.975 Y64.208 E.01215
G1 X106.632 Y64.029 E.01215
G1 X106.32 Y63.78 E.01252
G1 X105.961 Y63.317 E.01836
G1 X105.764 Y62.798 E.01742
G1 X105.691 Y62.318 E.01523
G1 X105.73 Y61.897 E.01326
G1 X105.842 Y61.525 E.01215
G1 X106.045 Y61.15 E.01339
G1 X106.261 Y60.877 E.0109
G1 X106.554 Y60.624 E.01215
G1 X106.889 Y60.429 E.01215
G1 X107.26 Y60.3 E.01231
G1 X107.753 Y60.241 E.01555
G1 X108.153 Y60.28 E.01262
G1 X108.525 Y60.392 E.01215
G1 X108.879 Y60.58 E.01258
G1 X109.317 Y60.966 E.01829
G1 X109.653 Y61.515 E.02019
G1 X109.776 Y61.932 E.01362
G1 X109.806 Y62.279 E.01094
M204 P1000
G1 X110.132 Y62.531 F9000
G1 E-2.24 F4200
;WIPE_START
G1 F7200
G1 X109.766 Y62.715 E-.2424
G1 X109.567 Y63.266 E-.32451
G1 X109.193 Y63.763 E-.34509
;WIPE_END
G1 E-.048 F4200
G1 Z.4 F720
G1 X122.474 Y64.318 F9000
G1 Z.2 F720
G1 E3.2 F2400
M204 P800
;TYPE:Perimeter
G1 F1200
G1 X122.116 Y64.142 E.01251
G1 X121.572 Y63.685 E.02229
G1 X121.384 Y63.458 E.00924
G1 X121.112 Y62.998 E.01674
G1 X120.928 Y62.473 E.01745
G1 X120.865 Y61.979 E.01562
