; generated by PrusaSlicer 2.1.1 on 2023-01-13 at 18:54:39 UTC


;
;

;
;
; 

; external perimeters extrusion width = 0.45mm
; perimeters extrusion width = 0.45mm
; infill extrusion width = 0.45mm
; solid infill extrusion width = 0.45mm
; top infill extrusion width = 0.40mm
; first layer extrusion width = 0.42mm

M73 P0 R174
M201 X1250 Y1250 Z400 E5000 ; sets maximum accelerations, mm/sec^2
M203 X180 Y180 Z12 E80 ; sets maximum feedrates, mm/sec
M204 P1250 R1250 T1250 ; sets acceleration (P, T) and retract acceleration (R), mm/sec^2
M205 X8.00 Y8.00 Z2.00 E10.00 ; sets the jerk limits, mm/sec
M205 S0 T0 ; sets the minimum extruding and travel feed rate, mm/sec
M107
G90 ; use absolute coordinates
M83 ; extruder relative mode
M104 S170 ; set extruder temp for bed leveling
M140 S60 ; set bed temp
M109 R170 ; wait for bed leveling temp
M190 S60 ; wait for bed temp
G28 ; home all without mesh bed level
G29 ; mesh bed leveling 
M104 S215 ; set extruder temp
G92 E0.0
G1 Y-2.0 X179 F2400
G1 Z3 F720
M109 S215 ; wait for extruder temp

; intro line
G1 X170 F1000
G1 Z0.2 F720
G1 X110.0 E8.0 F900
M73 P0 R174
G1 X40.0 E10.0 F700
G92 E0.0

M221 S95 ; set flow
G21 ; set units to millimeters
G90 ; use absolute coordinates
M83 ; use relative distances for extrusion
M900 K0.2 ; Filament gcode LA 1.5
; ; Filament gcode LA 1.0
;BEFORE_LAYER_CHANGE
G92 E0.0
;0.2


G1 Z0.200 F9000.000
;AFTER_LAYER_CHANGE
;0.2
G1 E-3.20000 F4200.00000
G1 Z0.400 F9000.000
G1 X43.181 Y26.197
G1 Z0.200
G1 E3.20000 F2400.00000
M204 S800
G1 F1200
G1 X45.098 Y24.251 E0.08566
G1 X45.692 Y23.934 E0.02112
G1 X46.355 Y23.812 E0.02112
G1 X133.589 Y23.811 E2.73519
G1 X134.416 Y23.975 E0.02642
G1 X135.122 Y24.441 E0.02653
G1 X136.787 Y26.151 E0.07484
G1 X137.078 Y26.727 E0.02021
G1 X137.188 Y27.362 E0.02021
G1 X137.189 Y152.593 E3.92653
G1 X137.093 Y153.227 E0.02010
G1 X136.819 Y153.803 E0.01998
G1 X134.899 Y155.751 E0.08578
G1 X134.301 Y156.068 E0.02123
G1 X133.634 Y156.188 E0.02123
G1 X46.407 Y156.189 E2.73496
G1 X45.773 Y156.093 E0.02010
G1 X45.197 Y155.819 E0.01998
G1 X43.245 Y153.893 E0.08600
G1 X42.928 Y153.290 E0.02134
G1 X42.812 Y152.620 E0.02134
G1 X42.811 Y27.407 E3.92596
G1 X42.907 Y26.773 E0.02010
G1 X43.155 Y26.252 E0.01810
M204 S1250
G1 E-2.24000 F4200.00000
G1 F7200
G1 X44.302 Y25.071 E-0.91200
G1 E-0.04800 F4200.00000
G1 Z0.400 F9000.000
G1 X126.579 Y80.467
G1 Z0.200
G1 E3.20000 F2400.00000
M204 S800
G1 F1200
G1 X126.993 Y79.933 E0.02118
G1 X127.500 Y79.486 E0.02118
G1 X128.082 Y79.142 E0.02118
G1 X128.718 Y78.913 E0.02120
G1 X129.382 Y78.809 E0.02109
G1 X129.835 Y78.809 E0.01421
G1 X130.292 Y78.866 E0.01441
G1 X130.931 Y79.052 E0.02089
G1 X131.533 Y79.359 E0.02118
G1 X132.067 Y79.773 E0.02118
G1 X132.514 Y80.280 E0.02118
G1 X132.858 Y80.862 E0.02118
G1 X133.087 Y81.497 E0.02118
G1 X133.193 Y82.165 E0.02118
G1 X133.171 Y82.840 E0.02118
G1 X133.024 Y83.499 E0.02118
G1 X132.759 Y84.111 E0.02089
G1 X132.513 Y84.499 E0.01442
G1 X132.220 Y84.853 E0.01442
G1 X131.720 Y85.294 E0.02089
G1 X131.138 Y85.638 E0.02118
G1 X130.503 Y85.867 E0.02118
G1 X129.835 Y85.973 E0.02118
G1 X129.160 Y85.951 E0.02118
G1 X128.501 Y85.804 E0.02118
G1 X127.881 Y85.536 E0.02118
G1 X127.322 Y85.156 E0.02118
G1 X126.844 Y84.678 E0.02118
G1 X126.464 Y84.119 E0.02118
G1 X126.200 Y83.508 E0.02089
G1 X126.085 Y83.062 E0.01442
G1 X126.029 Y82.615 E0.01413
G1 X126.029 Y82.165 E0.01412
G1 X126.085 Y81.715 E0.01421
G1 X126.272 Y81.069 E0.02109
G1 X126.552 Y80.520 E0.01932
M204 S1250
G1 X126.888 Y80.691 F9000.000
M204 S800
G1 F1200
G1 X127.269 Y80.192 E0.01970
G1 X127.723 Y79.792 E0.01895
G1 X128.243 Y79.485 E0.01895
G1 X128.812 Y79.280 E0.01895
G1 X129.412 Y79.186 E0.01904
G1 X129.812 Y79.186 E0.01254
G1 X130.215 Y79.237 E0.01274
G1 X130.792 Y79.405 E0.01884
G1 X131.331 Y79.679 E0.01895
G1 X131.808 Y80.049 E0.01895
G1 X132.208 Y80.503 E0.01895
G1 X132.515 Y81.023 E0.01895
G1 X132.720 Y81.591 E0.01895
G1 X132.815 Y82.188 E0.01895
G1 X132.796 Y82.792 E0.01895
G1 X132.664 Y83.382 E0.01895
G1 X132.425 Y83.934 E0.01885
G1 X132.207 Y84.277 E0.01274
G1 X131.948 Y84.590 E0.01274
G1 X131.497 Y84.988 E0.01884
G1 X130.977 Y85.295 E0.01895
G1 X130.409 Y85.500 E0.01895
G1 X129.812 Y85.595 E0.01895
G1 X129.208 Y85.576 E0.01895
G1 X128.618 Y85.444 E0.01895
G1 X128.063 Y85.204 E0.01895
G1 X127.563 Y84.864 E0.01895
G1 X127.136 Y84.437 E0.01895
G1 X126.796 Y83.937 E0.01895
G1 X126.558 Y83.385 E0.01884
G1 X126.456 Y82.992 E0.01275
G1 X126.406 Y82.592 E0.01264
G1 X126.406 Y82.188 E0.01264
G1 X126.456 Y81.792 E0.01254
G1 X126.624 Y81.208 E0.01904
G1 X126.861 Y80.745 E0.01631
M204 S1250
G1 X126.700 Y80.338 F9000.000
G1 E-2.24000 F4200.00000
G1 F7200
G1 X127.269 Y80.192 E-0.38093
G1 X127.723 Y79.792 E-0.33491
G1 X128.027 Y79.612 E-0.19616
G1 E-0.04800 F4200.00000
G1 Z0.400 F9000.000
G1 X129.113 Y35.327
G1 Z0.200
G1 E3.20000 F2400.00000
M204 S800
G1 F1200
G1 X128.384 Y35.164 E0.02342
G1 X127.698 Y34.867 E0.02344
G1 X127.088 Y34.452 E0.02314
G1 X126.719 Y34.105 E0.01588
G1 X126.392 Y33.709 E0.01609
G1 X126.019 Y33.080 E0.02294
G1 X125.766 Y32.377 E0.02342
G1 X125.649 Y31.639 E0.02342
G1 X125.672 Y30.908 E0.02294
G1 X125.768 Y30.404 E0.01609
G1 X125.925 Y29.922 E0.01588
G1 X126.259 Y29.264 E0.02314
G1 X126.717 Y28.673 E0.02344
G1 X127.277 Y28.179 E0.02342
G1 X127.920 Y27.799 E0.02342
G1 X128.624 Y27.546 E0.02344
G1 X129.353 Y27.432 E0.02314
G1 X129.859 Y27.432 E0.01588
G1 X130.368 Y27.496 E0.01609
G1 X131.071 Y27.700 E0.02294
G1 X131.736 Y28.039 E0.02342
G1 X132.327 Y28.497 E0.02342
G1 X132.821 Y29.057 E0.02342
G1 X133.201 Y29.700 E0.02342
G1 X133.454 Y30.403 E0.02342
G1 X133.571 Y31.141 E0.02342
G1 X133.547 Y31.887 E0.02342
G1 X133.388 Y32.601 E0.02294
G1 X133.199 Y33.079 E0.01609
G1 X132.951 Y33.528 E0.01609
G1 X132.503 Y34.107 E0.02294
G1 X131.943 Y34.601 E0.02342
G1 X131.300 Y34.981 E0.02342
G1 X130.597 Y35.234 E0.02342
G1 X129.859 Y35.351 E0.02342
G1 X129.173 Y35.329 E0.02154
M204 S1250
G1 X129.184 Y34.952 F9000.000
M204 S800
G1 F1200
G1 X128.501 Y34.804 E0.02193
G1 X127.880 Y34.536 E0.02120
G1 X127.324 Y34.157 E0.02109
G1 X126.994 Y33.846 E0.01421
G1 X126.701 Y33.492 E0.01441
G1 X126.362 Y32.918 E0.02089
G1 X126.133 Y32.283 E0.02118
G1 X126.027 Y31.615 E0.02118
G1 X126.048 Y30.949 E0.02089
G1 X126.134 Y30.498 E0.01441
G1 X126.274 Y30.067 E0.01421
G1 X126.579 Y29.467 E0.02109
G1 X126.993 Y28.933 E0.02120
G1 X127.500 Y28.486 E0.02118
G1 X128.082 Y28.142 E0.02118
G1 X128.718 Y27.913 E0.02120
G1 X129.382 Y27.809 E0.02109
G1 X129.835 Y27.809 E0.01421
G1 X130.292 Y27.866 E0.01441
G1 X130.931 Y28.052 E0.02089
G1 X131.533 Y28.359 E0.02118
G1 X132.067 Y28.773 E0.02118
G1 X132.514 Y29.280 E0.02118
G1 X132.858 Y29.862 E0.02118
G1 X133.087 Y30.497 E0.02118
G1 X133.193 Y31.165 E0.02118
G1 X133.171 Y31.840 E0.02118
G1 X133.026 Y32.490 E0.02089
G1 X132.857 Y32.918 E0.01442
G1 X132.635 Y33.321 E0.01442
G1 X132.227 Y33.847 E0.02089
G1 X131.720 Y34.294 E0.02118
G1 X131.138 Y34.638 E0.02118
G1 X130.503 Y34.867 E0.02118
G1 X129.835 Y34.973 E0.02118
G1 X129.244 Y34.954 E0.01854
M204 S1250
G1 X129.256 Y34.577 F9000.000
M204 S800
G1 F1200
G1 X128.618 Y34.444 E0.02045
G1 X128.063 Y34.204 E0.01895
G1 X127.561 Y33.862 E0.01904
G1 X127.270 Y33.588 E0.01254
G1 X127.011 Y33.274 E0.01274
G1 X126.705 Y32.757 E0.01884
G1 X126.500 Y32.189 E0.01895
G1 X126.405 Y31.592 E0.01895
G1 X126.424 Y30.991 E0.01884
G1 X126.500 Y30.592 E0.01274
G1 X126.624 Y30.211 E0.01254
G1 X126.899 Y29.670 E0.01904
G1 X127.269 Y29.192 E0.01895
G1 X127.723 Y28.792 E0.01895
G1 X128.243 Y28.485 E0.01895
G1 X128.812 Y28.280 E0.01895
G1 X129.412 Y28.186 E0.01904
G1 X129.812 Y28.186 E0.01254
G1 X130.215 Y28.237 E0.01274
G1 X130.792 Y28.405 E0.01884
G1 X131.331 Y28.679 E0.01895
G1 X131.808 Y29.049 E0.01895
G1 X132.208 Y29.503 E0.01895
G1 X132.515 Y30.023 E0.01895
G1 X132.720 Y30.591 E0.01895
G1 X132.815 Y31.188 E0.01895
G1 X132.796 Y31.792 E0.01895
G1 X132.665 Y32.379 E0.01884
G1 X132.515 Y32.757 E0.01275
G1 X132.319 Y33.113 E0.01274
G1 X131.951 Y33.588 E0.01884
G1 X131.497 Y33.988 E0.01895
G1 X130.977 Y34.295 E0.01895
G1 X130.409 Y34.500 E0.01895
G1 X129.812 Y34.595 E0.01895
G1 X129.316 Y34.579 E0.01554
M204 S1250
G1 X129.018 Y34.898 F9000.000
G1 E-2.24000 F4200.00000
G1 F7200
G1 X128.618 Y34.444 E-0.39425
G1 X128.063 Y34.204 E-0.33499
G1 X127.790 Y34.018 E-0.18276
G1 E-0.04800 F4200.00000
G1 Z0.400 F9000.000
G1 X54.327 Y31.887
G1 Z0.200
G1 E3.20000 F2400.00000
M204 S800
G1 F1200
G1 X54.164 Y32.616 E0.02342
G1 X53.874 Y33.288 E0.02294
G1 X53.599 Y33.721 E0.01609
G1 X53.271 Y34.117 E0.01609
G1 X52.723 Y34.601 E0.02294
G1 X52.080 Y34.981 E0.02342
G1 X51.377 Y35.234 E0.02342
G1 X50.639 Y35.351 E0.02342
G1 X49.893 Y35.327 E0.02342
G1 X49.164 Y35.164 E0.02342
G1 X48.478 Y34.867 E0.02344
G1 X47.868 Y34.452 E0.02314
G1 X47.499 Y34.105 E0.01588
G1 X47.172 Y33.709 E0.01609
G1 X46.799 Y33.080 E0.02294
G1 X46.546 Y32.377 E0.02342
G1 X46.429 Y31.639 E0.02342
G1 X46.452 Y30.908 E0.02294
G1 X46.548 Y30.404 E0.01609
G1 X46.705 Y29.922 E0.01588
G1 X47.039 Y29.264 E0.02314
G1 X47.497 Y28.673 E0.02344
G1 X48.057 Y28.179 E0.02342
G1 X48.700 Y27.799 E0.02342
G1 X49.404 Y27.546 E0.02344
G1 X50.133 Y27.432 E0.02314
G1 X50.639 Y27.432 E0.01588
G1 X51.148 Y27.496 E0.01609
G1 X51.851 Y27.700 E0.02294
G1 X52.516 Y28.039 E0.02342
G1 X53.107 Y28.497 E0.02342
G1 X53.601 Y29.057 E0.02342
G1 X53.981 Y29.700 E0.02342
G1 X54.234 Y30.403 E0.02342
G1 X54.351 Y31.141 E0.02342
G1 X54.329 Y31.827 E0.02154
M204 S1250
G1 X53.952 Y31.816 F9000.000
M204 S800
G1 F1200
G1 X53.804 Y32.499 E0.02193
G1 X53.539 Y33.111 E0.02089
G1 X53.293 Y33.499 E0.01442
G1 X53.000 Y33.853 E0.01442
G1 X52.500 Y34.294 E0.02089
G1 X51.918 Y34.638 E0.02118
G1 X51.283 Y34.867 E0.02118
G1 X50.615 Y34.973 E0.02118
G1 X49.940 Y34.951 E0.02118
G1 X49.281 Y34.804 E0.02118
G1 X48.660 Y34.536 E0.02120
G1 X48.104 Y34.157 E0.02109
G1 X47.774 Y33.846 E0.01421
G1 X47.481 Y33.492 E0.01441
G1 X47.142 Y32.918 E0.02089
G1 X46.913 Y32.283 E0.02118
G1 X46.807 Y31.615 E0.02118
G1 X46.828 Y30.949 E0.02089
G1 X46.914 Y30.498 E0.01441
G1 X47.054 Y30.067 E0.01421
G1 X47.359 Y29.467 E0.02109
G1 X47.773 Y28.933 E0.02120
G1 X48.280 Y28.486 E0.02118
G1 X48.862 Y28.142 E0.02118
G1 X49.498 Y27.913 E0.02120
G1 X50.162 Y27.809 E0.02109
G1 X50.615 Y27.809 E0.01421
G1 X51.072 Y27.866 E0.01441
G1 X51.711 Y28.052 E0.02089
G1 X52.313 Y28.359 E0.02118
G1 X52.847 Y28.773 E0.02118
G1 X53.294 Y29.280 E0.02118
G1 X53.638 Y29.862 E0.02118
G1 X53.867 Y30.497 E0.02118
G1 X53.973 Y31.165 E0.02118
G1 X53.954 Y31.756 E0.01854
M204 S1250
G1 X53.577 Y31.744 F9000.000
M204 S800
G1 F1200
G1 X53.444 Y32.382 E0.02045
G1 X53.205 Y32.934 E0.01884
G1 X52.987 Y33.277 E0.01274
G1 X52.728 Y33.590 E0.01274
G1 X52.277 Y33.988 E0.01884
G1 X51.757 Y34.295 E0.01895
G1 X51.189 Y34.500 E0.01895
G1 X50.592 Y34.595 E0.01895
G1 X49.988 Y34.576 E0.01895
G1 X49.398 Y34.444 E0.01895
G1 X48.843 Y34.204 E0.01895
G1 X48.341 Y33.862 E0.01904
G1 X48.050 Y33.588 E0.01254
G1 X47.791 Y33.274 E0.01274
G1 X47.485 Y32.757 E0.01884
G1 X47.280 Y32.189 E0.01895
G1 X47.185 Y31.592 E0.01895
G1 X47.204 Y30.991 E0.01884
G1 X47.280 Y30.592 E0.01274
G1 X47.404 Y30.211 E0.01254
G1 X47.679 Y29.670 E0.01904
G1 X48.049 Y29.192 E0.01895
G1 X48.503 Y28.792 E0.01895
G1 X49.023 Y28.485 E0.01895
G1 X49.592 Y28.280 E0.01895
G1 X50.192 Y28.186 E0.01904
G1 X50.592 Y28.186 E0.01254
G1 X50.995 Y28.237 E0.01274
G1 X51.572 Y28.405 E0.01884
G1 X52.111 Y28.679 E0.01895
G1 X52.588 Y29.049 E0.01895
G1 X52.988 Y29.503 E0.01895
G1 X53.295 Y30.023 E0.01895
G1 X53.500 Y30.591 E0.01895
G1 X53.595 Y31.188 E0.01895
G1 X53.579 Y31.684 E0.01554
M204 S1250
G1 X53.898 Y31.982 F9000.000
G1 E-2.24000 F4200.00000
G1 F7200
G1 X53.444 Y32.382 E-0.39425
G1 X53.205 Y32.934 E-0.33307
G1 X53.027 Y33.215 E-0.18468
G1 E-0.04800 F4200.00000
G1 Z0.400 F9000.000
G1 X46.814 Y26.964
G1 Z0.200
G1 E3.20000 F2400.00000
M204 S800
G1 F1200
G1 X133.186 Y26.964 E2.70816
G1 X134.036 Y27.814 E0.03766
G1 X134.036 Y85.186 E1.79889
G1 X133.186 Y86.036 E0.03766
G1 X131.147 Y86.036 E0.06395
G1 X131.300 Y85.981 E0.00510
G1 X131.943 Y85.601 E0.02342
G1 X132.491 Y85.117 E0.02294
G1 X132.819 Y84.721 E0.01609
G1 X133.094 Y84.288 E0.01609
G1 X133.384 Y83.616 E0.02294
G1 X133.547 Y82.887 E0.02342
G1 X133.571 Y82.141 E0.02342
G1 X133.454 Y81.403 E0.02342
G1 X133.201 Y80.700 E0.02342
G1 X132.821 Y80.057 E0.02342
G1 X132.327 Y79.497 E0.02342
G1 X131.736 Y79.039 E0.02342
G1 X131.071 Y78.700 E0.02342
G1 X130.368 Y78.496 E0.02294
G1 X129.859 Y78.432 E0.01609
G1 X129.353 Y78.432 E0.01588
G1 X128.624 Y78.546 E0.02314
G1 X127.920 Y78.799 E0.02344
G1 X127.277 Y79.179 E0.02342
G1 X126.717 Y79.673 E0.02342
G1 X126.259 Y80.264 E0.02342
G1 X125.920 Y80.930 E0.02344
G1 X125.715 Y81.639 E0.02314
G1 X125.652 Y82.141 E0.01588
G1 X125.652 Y82.639 E0.01561
G1 X125.714 Y83.133 E0.01562
G1 X125.842 Y83.630 E0.01609
G1 X126.132 Y84.302 E0.02294
G1 X126.552 Y84.920 E0.02342
G1 X127.080 Y85.448 E0.02342
G1 X127.698 Y85.868 E0.02342
G1 X128.087 Y86.036 E0.01328
G1 X51.939 Y86.036 E2.38758
G1 X52.314 Y85.859 E0.01302
G1 X52.920 Y85.448 E0.02294
G1 X53.448 Y84.920 E0.02342
G1 X53.868 Y84.302 E0.02342
G1 X54.164 Y83.616 E0.02342
G1 X54.327 Y82.887 E0.02342
G1 X54.351 Y82.141 E0.02342
G1 X54.234 Y81.403 E0.02342
G1 X53.981 Y80.700 E0.02342
G1 X53.601 Y80.057 E0.02342
G1 X53.107 Y79.497 E0.02342
G1 X52.516 Y79.039 E0.02342
G1 X51.851 Y78.700 E0.02342
G1 X51.148 Y78.496 E0.02294
G1 X50.639 Y78.432 E0.01609
G1 X50.133 Y78.432 E0.01588
G1 X49.404 Y78.546 E0.02314
G1 X48.700 Y78.799 E0.02344
G1 X48.057 Y79.179 E0.02342
G1 X47.497 Y79.673 E0.02342
G1 X47.039 Y80.264 E0.02342
G1 X46.700 Y80.929 E0.02342
G1 X46.496 Y81.632 E0.02294
G1 X46.432 Y82.141 E0.01609
G1 X46.432 Y82.654 E0.01609
G1 X46.546 Y83.377 E0.02294
G1 X46.799 Y84.080 E0.02342
G1 X47.172 Y84.709 E0.02294
G1 X47.499 Y85.105 E0.01609
G1 X47.868 Y85.452 E0.01588
G1 X48.478 Y85.867 E0.02314
G1 X48.867 Y86.036 E0.01330
G1 X46.814 Y86.036 E0.06438
G1 X45.964 Y85.186 E0.03766
G1 X45.964 Y27.814 E1.79889
G1 X46.771 Y27.007 E0.03578
M204 S1250
G1 E-2.24000 F4200.00000
G1 F7200
G1 X48.417 Y27.006 E-0.91200
G1 E-0.04800 F4200.00000
G1 Z0.400 F9000.000
G1 X50.162 Y78.809
G1 Z0.200
G1 E3.20000 F2400.00000
M204 S800
G1 F1200
G1 X50.615 Y78.809 E0.01421
G1 X51.072 Y78.866 E0.01441
G1 X51.711 Y79.052 E0.02089
G1 X52.313 Y79.359 E0.02118
G1 X52.847 Y79.773 E0.02118
G1 X53.294 Y80.280 E0.02118
G1 X53.638 Y80.862 E0.02118
G1 X53.867 Y81.497 E0.02118
G1 X53.973 Y82.165 E0.02118
G1 X53.951 Y82.840 E0.02118
G1 X53.804 Y83.499 E0.02118
G1 X53.536 Y84.119 E0.02118
G1 X53.156 Y84.678 E0.02118
G1 X52.678 Y85.156 E0.02118
G1 X52.127 Y85.530 E0.02089
G1 X51.711 Y85.726 E0.01442
G1 X51.274 Y85.868 E0.01442
G1 X50.615 Y85.973 E0.02089
G1 X49.940 Y85.951 E0.02118
G1 X49.281 Y85.804 E0.02118
G1 X48.660 Y85.536 E0.02120
G1 X48.104 Y85.157 E0.02109
G1 X47.774 Y84.846 E0.01421
G1 X47.481 Y84.492 E0.01441
G1 X47.142 Y83.918 E0.02089
G1 X46.913 Y83.283 E0.02118
G1 X46.809 Y82.625 E0.02089
G1 X46.809 Y82.165 E0.01442
G1 X46.866 Y81.708 E0.01442
G1 X47.052 Y81.069 E0.02089
G1 X47.359 Y80.467 E0.02118
G1 X47.773 Y79.933 E0.02118
G1 X48.280 Y79.486 E0.02118
G1 X48.862 Y79.142 E0.02118
G1 X49.498 Y78.913 E0.02120
G1 X50.103 Y78.818 E0.01921
M204 S1250
G1 X49.592 Y79.280 F9000.000
M204 S800
G1 F1200
G1 X50.192 Y79.186 E0.01904
G1 X50.592 Y79.186 E0.01254
G1 X50.995 Y79.237 E0.01274
G1 X51.572 Y79.405 E0.01884
G1 X52.111 Y79.679 E0.01895
G1 X52.588 Y80.049 E0.01895
G1 X52.988 Y80.503 E0.01895
G1 X53.295 Y81.023 E0.01895
G1 X53.500 Y81.591 E0.01895
G1 X53.595 Y82.188 E0.01895
G1 X53.576 Y82.792 E0.01895
G1 X53.444 Y83.382 E0.01895
G1 X53.204 Y83.937 E0.01895
G1 X52.864 Y84.437 E0.01895
M73 P0 R173
G1 X52.437 Y84.864 E0.01895
G1 X51.940 Y85.202 E0.01884
G1 X51.572 Y85.375 E0.01274
G1 X51.185 Y85.501 E0.01274
G1 X50.592 Y85.595 E0.01884
G1 X49.988 Y85.576 E0.01895
G1 X49.398 Y85.444 E0.01895
G1 X48.843 Y85.204 E0.01895
G1 X48.341 Y84.862 E0.01904
G1 X48.050 Y84.588 E0.01254
G1 X47.791 Y84.274 E0.01274
G1 X47.485 Y83.757 E0.01884
G1 X47.280 Y83.189 E0.01895
G1 X47.186 Y82.595 E0.01884
