; generated by PrusaSlicer 2.5.0+linux-x64-GTK3 on 2022-10-05 at 00:00:46 UTC


;
;

;
;
; 

; external perimeters extrusion width = 0.45mm
; perimeters extrusion width = 0.45mm
; infill extrusion width = 0.45mm
; solid infill extrusion width = 0.45mm
; top infill extrusion width = 0.40mm
; first layer extrusion width = 0.42mm

M73 P0 R28
M201 X2500 Y2500 Z400 E5000 ; sets maximum accelerations, mm/sec^2
M203 X180 Y180 Z12 E80 ; sets maximum feedrates, mm / sec
M204 P1250 R1250 T2500 ; sets acceleration (P, T) and retract acceleration (R), mm/sec^2
M205 X8.00 Y8.00 Z2.00 E10.00 ; sets the jerk limits, mm/sec
M205 S0 T0 ; sets the minimum extruding and travel feed rate, mm/sec
M107
;TYPE:Custom
M862.3 P "MINI" ; printer model check
G90 ; use absolute coordinates
M83 ; extruder relative mode
M104 S170 ; set extruder temp for bed leveling
M140 S60 ; set bed temp
M109 R170 ; wait for bed leveling temp
M190 S60 ; wait for bed temp
M204 T1250 ; set travel acceleration
G28 ; home all without mesh bed level
G29 ; mesh bed leveling 
M204 T2500 ; restore travel acceleration
M104 S215 ; set extruder temp
G92 E0
G1 Y-2 X179 F2400
G1 Z3 F720
M109 S215 ; wait for extruder temp

; intro line
G1 X170 F1000
G1 Z0.2 F720
G1 X110 E8 F900
G1 X40 E10 F700
G92 E0

M221 S95 ; set flow
G21 ; set units to millimeters
G90 ; use absolute coordinates
M83 ; use relative distances for extrusion
M900 K0.2 ; Filament gcode LA 1.5
; ; Filament gcode LA 1.0
M107
;LAYER_CHANGE
;Z:0.2
;HEIGHT:0.2
;BEFORE_LAYER_CHANGE
G92 E0.0
;0.2


G1 E-3.2 F4200
G1 Z.2 F720
;AFTER_LAYER_CHANGE
;0.2
G1 Z.4
G1 X65.933 Y73.798 F9000
G1 Z.2 F720
G1 E3.2 F2400
M204 P800
;TYPE:Skirt/Brim
;WIDTH:0.42
G1 F1200
G1 X66.978 Y72.921 E.04278
G1 X67.918 Y72.728 E.03008
G1 X127.238 Y72.728 E1.85994
G1 X128.545 Y73.119 E.04278
M73 P1 R28
G1 X129.422 Y74.165 E.04278
G1 X129.615 Y75.105 E.03008
G1 X129.615 Y96.536 E.67196
G1 X129.224 Y97.843 E.04278
G1 X128.178 Y98.719 E.04278
G1 X127.238 Y98.913 E.03008
G1 X67.918 Y98.913 E1.85994
G1 X66.611 Y98.522 E.04278
G1 X65.735 Y97.476 E.04278
G1 X65.541 Y96.536 E.03008
G1 X65.541 Y75.105 E.67196
G1 X65.916 Y73.855 E.0409
M204 P1000
; printing object spacedos_desk.stl id:0 copy 0
M73 P1 R27
G1 E-2.24 F4200
;WIPE_START
G1 F7200
G1 X66.978 Y72.921 E-.78411
G1 X67.205 Y72.875 E-.12789
;WIPE_END
G1 E-.048 F4200
G1 Z.4 F720
G1 X88.958 Y95.372 F9000
G1 Z.2 F720
G1 E3.2 F2400
M204 P800
;TYPE:Perimeter
;WIDTH:0.419999
G1 F1200
G1 X88.771 Y94.793 E.01908
G1 X88.473 Y94.289 E.01835
G1 X88.307 Y94.082 E.00833
G1 X87.799 Y93.636 E.02119
G1 X87.279 Y93.363 E.01841
G1 X86.717 Y93.199 E.01836
G1 X86.258 Y93.162 E.01444
G1 X85.722 Y93.199 E.01685
G1 X85.159 Y93.363 E.01836
G1 X84.892 Y93.488 E.00925
G1 X84.408 Y93.818 E.01836
G1 X84.193 Y94.019 E.00924
G1 X83.834 Y94.482 E.01835
G1 X83.703 Y94.712 E.00833
G1 X83.473 Y95.372 E.0219
G1 X69.082 Y95.372 E.4512
G1 X69.082 Y86.026 E.29304
;WIDTH:0.425691
G1 X69.082 Y84.807 E.03878
;WIDTH:0.419999
G1 X69.082 Y76.269 E.26771
G1 X126.074 Y76.269 E1.78694
G1 X126.074 Y84.569 E.26025
G1 X124.539 Y81.909 E.0963
G1 X124.273 Y81.616 E.0124
G1 X123.979 Y81.473 E.01024
G1 X123.722 Y81.438 E.00814
G1 X120.216 Y81.438 E.10992
G1 X120.002 Y81.463 E.00678
G1 X119.633 Y81.64 E.01281
G1 X119.4 Y81.909 E.01117
G1 X117.647 Y84.945 E.10992
G1 X117.542 Y85.219 E.0092
G1 X117.528 Y85.531 E.00979
G1 X117.647 Y85.888 E.0118
G1 X119.4 Y88.924 E.10992
G1 X119.584 Y89.152 E.00919
G1 X119.867 Y89.328 E.01043
G1 X120.216 Y89.395 E.01117
G1 X123.722 Y89.395 E.10992
G1 X123.979 Y89.36 E.00814
G1 X124.273 Y89.217 E.01024
G1 X124.539 Y88.924 E.0124
G1 X126.074 Y86.264 E.0963
G1 X126.074 Y95.372 E.28557
G1 X89.018 Y95.372 E1.16186
M204 P1000
G1 X88.642 Y95.748 F9000
M204 P800
M73 P2 R27
G1 F1200
G1 X88.624 Y95.586 E.00511
G1 X88.446 Y94.985 E.01967
G1 X88.049 Y94.356 E.02331
G1 X87.607 Y93.96 E.0186
G1 X87.146 Y93.717 E.01636
G1 X86.454 Y93.539 E.02239
G1 X85.827 Y93.562 E.01967
G1 X85.104 Y93.8 E.02386
G1 X84.491 Y94.25 E.02385
G1 X84.132 Y94.713 E.01835
G1 X83.881 Y95.288 E.01968
G1 X83.804 Y95.749 E.01465
G1 X68.705 Y95.749 E.47342
G1 X68.705 Y75.892 E.62261
G1 X126.451 Y75.892 E1.81058
G1 X126.451 Y85.003 E.28568
;WIDTH:0.426612
G1 X126.451 Y89.335 E.13821
;WIDTH:0.419999
G1 X126.451 Y95.749 E.20109
G1 X88.702 Y95.748 E1.18359
M204 P1000
G1 X88.25 Y96.126 F9000
M204 P800
;TYPE:External perimeter
G1 F1200
G1 X88.259 Y95.68 E.01399
G1 X88.122 Y95.177 E.01636
G1 X87.824 Y94.673 E.01835
G1 X87.448 Y94.31 E.01638
G1 X87.04 Y94.079 E.01469
G1 X86.454 Y93.916 E.01909
G1 X85.932 Y93.924 E.01636
G1 X85.316 Y94.112 E.02019
G1 X84.789 Y94.482 E.02019
G1 X84.43 Y94.944 E.01835
G1 X84.231 Y95.427 E.01637
G1 X84.161 Y95.938 E.01619
G1 X84.175 Y96.126 E.0059
G1 X68.328 Y96.126 E.49687
G1 X68.328 Y75.515 E.64625
G1 X126.828 Y75.515 E1.83423
G1 X126.828 Y96.126 E.64625
G1 X88.31 Y96.126 E1.20772
M204 P1000
G1 X88.396 Y95.754 F9000
G1 E-2.24 F4200
;WIPE_START
G1 F7200
G1 X88.259 Y95.68 E-.24878
G1 X88.122 Y95.177 E-.28915
G1 X87.824 Y94.673 E-.32431
G1 X87.759 Y94.61 E-.04976
;WIPE_END
G1 E-.048 F4200
G1 Z.4 F720
G1 X76.405 Y89.028 F9000
G1 Z.2 F720
M73 P3 R27
G1 E3.2 F2400
M204 P800
;TYPE:Perimeter
G1 F1200
G1 X76.304 Y89.152 E.00501
G1 X76.022 Y89.328 E.01043
G1 X75.672 Y89.395 E.01117
G1 X72.166 Y89.395 E.10992
G1 X71.958 Y89.372 E.00656
G1 X71.75 Y89.298 E.00694
G1 X71.535 Y89.153 E.00812
G1 X71.35 Y88.924 E.00924
G1 X69.597 Y85.888 E.10992
;WIDTH:0.434305
G1 X69.478 Y85.581 E.01072
G1 X69.478 Y85.252 E.01068
G1 X69.597 Y84.945 E.01072
;WIDTH:0.419999
G1 X71.35 Y81.909 E.10992
G1 X71.564 Y81.655 E.01041
G1 X71.808 Y81.508 E.00895
G1 X72.166 Y81.438 E.01144
G1 X75.672 Y81.438 E.10992
G1 X76.085 Y81.533 E.0133
G1 X76.39 Y81.769 E.01208
G1 X78.241 Y84.945 E.11526
G1 X78.346 Y85.214 E.00904
G1 X78.352 Y85.586 E.01166
G1 X78.241 Y85.888 E.0101
G1 X76.442 Y88.981 E.1122
M204 P1000
G1 X76.101 Y88.798 F9000
M204 P800
G1 F1200
G1 X75.974 Y88.931 E.00578
G1 X75.77 Y89.01 E.00685
G1 X75.672 Y89.018 E.00308
G1 X72.166 Y89.018 E.10992
G1 X71.916 Y88.96 E.00805
G1 X71.677 Y88.735 E.0103
G1 X69.924 Y85.699 E.10992
G1 X69.848 Y85.417 E.00918
G1 X69.924 Y85.134 E.00918
G1 X71.677 Y82.098 E.10992
G1 X71.805 Y81.945 E.00624
G1 X72.089 Y81.82 E.00974
G1 X72.166 Y81.815 E.00242
G1 X75.672 Y81.815 E.10992
G1 X75.92 Y81.872 E.00798
G1 X76.103 Y82.014 E.00725
G1 X77.915 Y85.134 E.11313
G1 X77.989 Y85.379 E.00804
G1 X77.945 Y85.638 E.00824
G1 X77.915 Y85.699 E.00215
G1 X76.143 Y88.755 E.11076
M204 P1000
G1 X75.835 Y88.547 F9000
M204 P800
;TYPE:External perimeter
G1 F1200
G1 X75.705 Y88.638 E.005
G1 X75.672 Y88.641 E.00103
G1 X72.166 Y88.641 E.10992
G1 X72.04 Y88.593 E.00424
G1 X72.003 Y88.547 E.00185
G1 X70.25 Y85.511 E.10992
G1 X70.228 Y85.384 E.00404
G1 X72.003 Y82.286 E.11195
G1 X72.141 Y82.194 E.0052
G1 X75.672 Y82.192 E.11072
G1 X75.816 Y82.258 E.00496
G1 X77.588 Y85.322 E.11099
G1 X77.6 Y85.486 E.00514
G1 X75.865 Y88.495 E.10891
M204 P1000
G1 X75.873 Y88.702 F9000
G1 E-2.24 F4200
;WIPE_START
G1 F7200
G1 X75.705 Y88.638 E-.11936
G1 X75.672 Y88.641 E-.01812
G1 X74.274 Y88.641 E-.77452
;WIPE_END
G1 E-.048 F4200
G1 Z.4 F720
G1 X87.976 Y82.223 F9000
G1 Z.2 F720
G1 E3.2 F2400
M204 P800
;TYPE:Perimeter
G1 F1200
G1 X87.897 Y82.296 E.00338
G1 X87.421 Y82.584 E.01745
G1 X86.918 Y82.765 E.01674
G1 X86.629 Y82.82 E.00924
G1 X86.095 Y82.837 E.01674
G1 X85.546 Y82.745 E.01745
G1 X84.986 Y82.514 E.019
G1 X84.457 Y82.115 E.02077
G1 X84.151 Y81.746 E.01501
G1 X83.848 Y81.247 E.0183
G1 X83.695 Y80.773 E.01562
G1 X83.645 Y80.456 E.01007
G1 X83.644 Y79.958 E.01562
G1 X83.83 Y79.212 E.02411
G1 X83.955 Y78.945 E.00924
G1 X84.255 Y78.504 E.01674
G1 X84.653 Y78.114 E.01745
G1 X85.233 Y77.77 E.02115
G1 X85.766 Y77.61 E.01745
G1 X86.298 Y77.56 E.01674
G1 X86.592 Y77.578 E.00924
G1 X87.113 Y77.695 E.01674
G1 X87.622 Y77.921 E.01745
G1 X88.155 Y78.334 E.02115
G1 X88.471 Y78.719 E.01562
G1 X88.71 Y79.156 E.01562
G1 X88.863 Y79.63 E.01562
G1 X88.925 Y80.124 E.01562
G1 X88.892 Y80.621 E.01562
G1 X88.768 Y81.103 E.01562
G1 X88.554 Y81.554 E.01562
G1 X88.261 Y81.956 E.01562
G1 X88.02 Y82.182 E.01036
M204 P1000
G1 X87.726 Y81.945 F9000
M204 P800
G1 F1200
G1 X87.293 Y82.229 E.01624
G1 X86.791 Y82.41 E.01674
G1 X86.279 Y82.454 E.01609
G1 X85.942 Y82.447 E.01058
G1 X85.527 Y82.344 E.0134
G1 X85.11 Y82.144 E.0145
G1 X84.688 Y81.817 E.01674
G1 X84.267 Y81.246 E.02223
G1 X84.068 Y80.714 E.01781
G1 X84.017 Y80.397 E.01007
G1 X84.043 Y79.83 E.01781
G1 X84.192 Y79.317 E.01674
G1 X84.567 Y78.715 E.02223
G1 X84.988 Y78.334 E.01781
G1 X85.361 Y78.125 E.0134
G1 X85.802 Y77.985 E.0145
G1 X86.333 Y77.935 E.01674
G1 X87.031 Y78.063 E.02223
G1 X87.54 Y78.314 E.01781
G1 X87.872 Y78.583 E.0134
G1 X88.147 Y78.91 E.0134
G1 X88.356 Y79.283 E.0134
G1 X88.491 Y79.689 E.0134
G1 X88.548 Y80.112 E.0134
G1 X88.524 Y80.539 E.0134
G1 X88.421 Y80.954 E.0134
G1 X88.243 Y81.342 E.0134
G1 X87.994 Y81.689 E.0134
G1 X87.769 Y81.904 E.00974
M204 P1000
G1 X87.444 Y81.692 F9000
M204 P800
;TYPE:External perimeter
G1 F1200
G1 X87.165 Y81.875 E.01045
G1 X86.663 Y82.055 E.01674
G1 X86.071 Y82.083 E.01857
G1 X85.677 Y81.998 E.01265
G1 X85.341 Y81.846 E.01155
G1 X84.92 Y81.519 E.01674
G1 X84.579 Y81.034 E.01857
G1 X84.44 Y80.655 E.01265
G1 X84.39 Y80.338 E.01007
G1 X84.405 Y79.935 E.01265
G1 X84.554 Y79.422 E.01674
G1 X84.879 Y78.927 E.01857
G1 X85.18 Y78.659 E.01265
G1 X85.489 Y78.48 E.01118
G1 X85.837 Y78.361 E.01155
G1 X86.369 Y78.311 E.01674
G1 X86.949 Y78.431 E.01857
G1 X87.309 Y78.612 E.01265
G1 X87.589 Y78.833 E.01118
G1 X87.822 Y79.102 E.01118
G1 X88.001 Y79.411 E.01118
G1 X88.119 Y79.748 E.01118
G1 X88.171 Y80.1 E.01118
G1 X88.156 Y80.457 E.01118
G1 X88.075 Y80.804 E.01118
G1 X87.931 Y81.13 E.01118
G1 X87.728 Y81.423 E.01118
G1 X87.491 Y81.655 E.01039
M204 P1000
G1 X87.494 Y82.021 F9000
G1 E-2.24 F4200
;WIPE_START
G1 F7200
G1 X87.165 Y81.875 E-.21776
G1 X86.663 Y82.055 E-.29587
G1 X86.071 Y82.083 E-.32819
G1 X85.948 Y82.056 E-.07017
;WIPE_END
G1 E-.048 F4200
G1 Z.4 F720
G1 X117.935 Y85.244 F9000
G1 Z.2 F720
G1 E3.2 F2400
M204 P800
;TYPE:Perimeter
G1 F1200
G1 X117.974 Y85.134 E.00366
G1 X119.727 Y82.098 E.10992
G1 X119.867 Y81.936 E.0067
G1 X120.119 Y81.823 E.00866
G1 X120.216 Y81.815 E.00308
G1 X123.722 Y81.815 E.10992
G1 X123.876 Y81.836 E.00488
G1 X124.053 Y81.922 E.00615
G1 X124.212 Y82.098 E.00744
G1 X125.965 Y85.134 E.10992
;WIDTH:0.436829
G1 X126.049 Y85.417 E.00966
G1 X125.968 Y85.701 E.00969
;WIDTH:0.426612
G1 X124.212 Y88.735 E.11185
;WIDTH:0.419999
G1 X124.053 Y88.911 E.00744
G1 X123.876 Y88.997 E.00615
G1 X123.086 Y89.018 E.02479
G1 X120.216 Y89.018 E.08997
G1 X120.006 Y88.978 E.0067
G1 X119.774 Y88.806 E.00906
G1 X119.727 Y88.735 E.00266
G1 X117.974 Y85.699 E.10992
G1 X117.898 Y85.438 E.00852
G1 X117.924 Y85.303 E.00432
M204 P1000
G1 X118.3 Y85.322 F9000
M204 P800
;TYPE:External perimeter
G1 F1200
G1 X120.053 Y82.286 E.10992
G1 X120.184 Y82.195 E.005
G1 X123.722 Y82.192 E.11094
G1 X123.832 Y82.228 E.00363
G1 X123.885 Y82.286 E.00248
G1 X125.638 Y85.322 E.10992
G1 X125.661 Y85.449 E.00404
G1 X123.885 Y88.547 E.11195
G1 X123.774 Y88.634 E.00445
G1 X120.216 Y88.641 E.11153
G1 X120.053 Y88.547 E.00591
G1 X118.3 Y85.511 E.10992
G1 X118.286 Y85.379 E.00417
M204 P1000
G1 X117.996 Y85.063 F9000
G1 E-2.24 F4200
;WIPE_START
G1 F7200
G1 X119.102 Y83.95 E-.912
;WIPE_END
G1 E-.048 F4200
G1 Z.4 F720
G1 X125.961 Y77.15 F9000
G1 Z.2 F720
G1 E3.2 F2400
M204 P800
;TYPE:Solid infill
;WIDTH:0.42264
G1 F1200
G1 X125.363 Y76.552 E.02671
G1 X124.826 Y76.552 E.01696
G1 X125.791 Y77.517 E.04311
G1 X125.791 Y78.054 E.01696
G1 X124.289 Y76.552 E.06709
G1 X123.752 Y76.552 E.01696
G1 X125.791 Y78.591 E.09107
G1 X125.791 Y79.128 E.01696
G1 X123.215 Y76.552 E.11505
G1 X122.678 Y76.552 E.01696
G1 X125.791 Y79.665 E.13903
G1 X125.791 Y80.202 E.01696
G1 X122.141 Y76.552 E.163
G1 X121.604 Y76.552 E.01696
G1 X125.791 Y80.739 E.18698
G1 X125.791 Y81.276 E.01696
G1 X121.067 Y76.552 E.21096
G1 X120.53 Y76.552 E.01696
G1 X125.791 Y81.813 E.23494
G1 X125.791 Y82.35 E.01696
G1 X119.993 Y76.552 E.25892
G1 X119.456 Y76.552 E.01696
G1 X125.791 Y82.887 E.2829
G1 X125.791 Y83.424 E.01696
G1 X125.206 Y82.839 E.02615
M204 P1000
G1 E-2.24 F4200
;WIPE_START
G1 F7200
G1 X125.791 Y83.424 E-.45905
G1 X125.791 Y82.887 E-.29759
G1 X125.593 Y82.689 E-.15536
;WIPE_END
G1 E-.048 F4200
G1 Z.4 F720
G1 X123.692 Y81.325 F9000
G1 Z.2 F720
G1 E3.2 F2400
M204 P800
G1 F1200
G1 X118.919 Y76.552 E.21312
G1 X118.382 Y76.552 E.01696
G1 X122.985 Y81.155 E.20555
G1 X122.448 Y81.155 E.01696
G1 X117.845 Y76.552 E.20555
G1 X117.308 Y76.552 E.01696
G1 X121.911 Y81.155 E.20555
G1 X121.374 Y81.155 E.01696
G1 X116.771 Y76.552 E.20555
G1 X116.234 Y76.552 E.01696
G1 X120.837 Y81.155 E.20555
G1 X120.3 Y81.155 E.01696
G1 X115.697 Y76.552 E.20555
G1 X115.16 Y76.552 E.01696
G1 X119.835 Y81.227 E.20878
G1 X119.68 Y81.278 E.00516
G1 X119.477 Y81.405 E.00759
G1 X114.623 Y76.552 E.21673
G1 X114.086 Y76.552 E.01696
G1 X119.216 Y81.681 E.22905
G1 X119.012 Y82.015 E.01234
M73 P4 R27
G1 X113.549 Y76.552 E.24395
G1 X113.012 Y76.552 E.01696
G1 X118.816 Y82.356 E.25915
G1 X118.619 Y82.696 E.01241
G1 X112.475 Y76.552 E.27436
G1 X111.938 Y76.552 E.01696
G1 X118.423 Y83.036 E.28956
G1 X118.226 Y83.377 E.01241
G1 X111.401 Y76.552 E.30476
G1 X110.864 Y76.552 E.01696
G1 X118.029 Y83.717 E.31996
G1 X117.833 Y84.058 E.01241
G1 X110.327 Y76.552 E.33516
G1 X109.79 Y76.552 E.01696
G1 X117.636 Y84.398 E.35037
G1 X117.44 Y84.739 E.01241
G1 X109.253 Y76.552 E.36557
G1 X108.716 Y76.552 E.01696
G1 X117.282 Y85.118 E.3825
G1 X117.238 Y85.369 E.00804
G1 X117.261 Y85.634 E.0084
G1 X108.179 Y76.552 E.40555
G1 X107.642 Y76.552 E.01696
G1 X118.252 Y87.162 E.47378
M204 P1000
G1 E-2.24 F4200
;WIPE_START
G1 F7200
G1 X117.089 Y85.998 E-.912
;WIPE_END
G1 E-.048 F4200
G1 Z.4 F720
G1 X125.961 Y87.89 F9000
G1 Z.2 F720
G1 E3.2 F2400
M204 P800
G1 F1200
G1 X125.645 Y87.574 E.01413
G1 X125.448 Y87.914 E.01241
G1 X125.791 Y88.257 E.01533
G1 X125.791 Y88.794 E.01696
G1 X125.252 Y88.254 E.02411
G1 X125.055 Y88.595 E.01241
G1 X125.791 Y89.331 E.03288
G1 X125.791 Y89.868 E.01696
G1 X124.858 Y88.935 E.04166
G1 X124.778 Y89.074 E.00505
G1 X124.627 Y89.241 E.00712
G1 X125.791 Y90.405 E.05198
G1 X125.791 Y90.942 E.01696
G1 X124.343 Y89.494 E.06466
G1 X124.058 Y89.632 E.01
G1 X123.958 Y89.646 E.00319
G1 X125.791 Y91.479 E.08186
G1 X125.791 Y92.016 E.01696
G1 X123.453 Y89.678 E.10441
G1 X122.916 Y89.678 E.01696
G1 X125.791 Y92.553 E.12839
G1 X125.791 Y93.09 E.01696
G1 X122.379 Y89.678 E.15237
G1 X121.842 Y89.678 E.01696
G1 X125.791 Y93.627 E.17635
G1 X125.791 Y94.164 E.01696
G1 X121.305 Y89.678 E.20032
G1 X120.768 Y89.678 E.01696
G1 X125.791 Y94.701 E.2243
G1 X125.791 Y95.089 E.01224
G1 X125.642 Y95.089 E.00471
G1 X120.231 Y89.678 E.24161
G1 X119.983 Y89.656 E.00787
G1 X119.762 Y89.591 E.00728
G1 X119.563 Y89.49 E.00703
G1 X119.395 Y89.362 E.00668
G1 X119.259 Y89.218 E.00626
G1 X119.157 Y89.068 E.00571
G1 X118.522 Y87.969 E.04008
G1 X107.105 Y76.552 E.50981
G1 X106.568 Y76.552 E.01696
G1 X125.105 Y95.089 E.82773
G1 X124.568 Y95.089 E.01696
G1 X106.031 Y76.552 E.82773
G1 X105.494 Y76.552 E.01696
G1 X124.031 Y95.089 E.82773
G1 X123.494 Y95.089 E.01696
G1 X104.957 Y76.552 E.82773
G1 X104.42 Y76.552 E.01696
M73 P4 R26
G1 X122.957 Y95.089 E.82773
G1 X122.42 Y95.089 E.01696
M73 P5 R26
G1 X103.883 Y76.552 E.82773
G1 X103.346 Y76.552 E.01696
G1 X121.883 Y95.089 E.82773
G1 X121.346 Y95.089 E.01696
G1 X102.809 Y76.552 E.82773
G1 X102.272 Y76.552 E.01696
G1 X120.809 Y95.089 E.82773
G1 X120.272 Y95.089 E.01696
G1 X101.735 Y76.552 E.82773
G1 X101.198 Y76.552 E.01696
G1 X119.735 Y95.089 E.82773
G1 X119.198 Y95.089 E.01696
G1 X100.661 Y76.552 E.82773
G1 X100.124 Y76.552 E.01696
G1 X118.661 Y95.089 E.82773
G1 X118.124 Y95.089 E.01696
G1 X99.587 Y76.552 E.82773
G1 X99.05 Y76.552 E.01696
G1 X117.587 Y95.089 E.82773
G1 X117.05 Y95.089 E.01696
G1 X98.513 Y76.552 E.82773
G1 X97.976 Y76.552 E.01696
G1 X116.513 Y95.089 E.82773
G1 X115.976 Y95.089 E.01696
M73 P6 R26
G1 X97.439 Y76.552 E.82773
G1 X96.902 Y76.552 E.01696
G1 X115.439 Y95.089 E.82773
